!!!OTL: 239. Der Bauer /c.
!!!ARE: Europa, Mitteleuropa, Deutschland, Vogtland
!!!SCT: K2239B
!!!TXL: @@DE
!!!YEM: Copyright 1995, estate of Helmut Schaffrath.
**kern	**text
*clefG2	*
*M3/4	*
*k[f#]	*
*G:	*
{8d	Wollt
8d	ihr
=1	=1
4g	wiſ-
4g	-ſen,
8d	wie
8d	der
=2	=2
4g	Bau-
4g}	-er,
{8b	wollt
8b	ihr
=3	=3
4cc	wiſ-
4cc	-ſen,
8a	wie
8a	der
=4	=4
4b	Bau-
4b}	-er
{8g	ſei-
8g	-nen
=5	=5
4a	Ha-
4a	-fer
4f#	aus-
=6	=6
2dd}	-ſät?
{8b	wollt
8b	ihr
=7	=7
4cc	wiſ-
4cc	-ſen,
8a	wie
8a	der
=8	=8
4b	Bau-
4b}	-er
{8g	ſei-
8g	-nen
=9	=9
4a	Ha-
4a	-fer
4f#	aus-
=10	=10
2g}	-ſät.
==	==
!!!AGN: Kinder - Lied, Reigen, Tanz, Nachahmungs - Spiel
!!!ONB: ESAC (Essen Associative Code) Database: KINDER
!!!AMT: simple triple
!!!AIN: vox
!!!EED: Helmut Schaffrath
!!!EEV: 1.0
!!Aus dem Vogtlande, 1895.
!!!GTL: Zweites Buch. Kinderspiel: 2. Reigen und Tanzspiele. / E. Reigenspiele mit Nachahmungen.
!!!URL-scan: https://archive.org/details/DeutschesKinderliedUndKinderspiel/page/496/mode/1up
!!!ENC: Anna Maria Matuszewska
!!!EEV: 2024/04/09
*-	*-
